client/public/icons/appointments_icon.svg

<svg width="66" height="65" viewBox="0 0 66 65" fill="none" xmlns="http://www.w3.org/2000/svg">
<rect width="66" height="65" rx="10" fill="#F6F8FF"/>
<path d="M43.1962 20.6446H21.1817C20.4047 20.6446 19.8867 20.1266 19.8867 19.3497C19.8867 18.5727 20.4047 18.0547 21.1817 18.0547H43.1962C43.9732 18.0547 44.4912 18.5727 44.4912 19.3497C44.4912 20.1266 43.9732 20.6446 43.1962 20.6446Z" fill="#F2D4B7"/>
<path d="M50.6287 50.4468L47.0258 46.8723C47.9265 45.5957 48.3125 44.1915 48.3125 42.6596C48.3125 38.4468 44.8383 35 40.7206 35C36.6029 35 33 38.4468 33 42.6596C33 46.8723 36.4743 50.3191 40.5919 50.3191C42.136 50.3191 43.6802 49.8085 44.8383 49.0426L48.4412 52.617C48.9559 53.1277 49.9853 53.1277 50.5 52.617C51.1434 51.9787 51.1434 50.9574 50.6287 50.4468Z" fill="#F2D4B7"/>
<path d="M30.5 42.2857C30.5 36.6286 35.2455 32 40.9136 32C42.3636 32 43.6818 32.2571 45 32.7714V23C45 22.2286 44.4727 21.7143 43.6818 21.7143H23.9091H21.2727C19.8227 21.7143 18.6364 20.5571 18.6364 19.1429C18.6364 17.7286 19.8227 16.5714 21.2727 16.5714H43.6818C44.4727 16.5714 45 16.0571 45 15.2857C45 14.5143 44.4727 14 43.6818 14H21.2727C18.3727 14 16 16.3143 16 19.1429V44.8571C16 47.6857 18.3727 50 21.2727 50H23.9091H34.1909C31.95 48.0714 30.5 45.3714 30.5 42.2857Z" fill="#577CFF"/>
</svg>

<?xml version="1.0" encoding="UTF-8"?>
<svg id="Layer_1" xmlns="http://www.w3.org/2000/svg" version="1.1" viewBox="0 0 66 65">
  <!-- Generator: Adobe Illustrator 29.3.0, SVG Export Plug-In . SVG Version: 2.1.0 Build 146)  -->
  <defs>
    <style>
      .st0 {
        fill: #3490dc;
      }

      .st1 {
        fill: #f2d4b7;
      }

      .st2 {
        fill: #f6f8ff;
      }
    </style>
  </defs>
  <rect class="st2" y="0" width="66" height="65" rx="10" ry="10"/>
  <path class="st1" d="M43.2,20.6h-22c-.8,0-1.3-.5-1.3-1.3s.5-1.3,1.3-1.3h22c.8,0,1.3.5,1.3,1.3s-.5,1.3-1.3,1.3Z"/>
  <path class="st1" d="M50.6,50.4l-3.6-3.6c.9-1.3,1.3-2.7,1.3-4.2,0-4.2-3.5-7.7-7.6-7.7s-7.7,3.4-7.7,7.7,3.5,7.7,7.6,7.7,3.1-.5,4.2-1.3l3.6,3.6c.5.5,1.5.5,2.1,0,.6-.6.6-1.7.1-2.2Z"/>
  <path class="st0" d="M30.5,42.3c0-5.7,4.7-10.3,10.4-10.3s2.8.3,4.1.8v-9.8c0-.8-.5-1.3-1.3-1.3h-22.4c-1.4,0-2.6-1.2-2.6-2.6s1.2-2.6,2.6-2.6h22.4c.8,0,1.3-.5,1.3-1.3s-.5-1.3-1.3-1.3h-22.4c-2.9,0-5.3,2.3-5.3,5.1v25.7c0,2.8,2.4,5.1,5.3,5.1h12.9c-2.2-1.9-3.7-4.6-3.7-7.7Z"/>
</svg>
